X:1
T:Wreford, 86.84
T:Edmund Sardinson Carter, 1874
T:Wreford, 86.84
T:Public Domain
C:Edmund Sardinson Carter, 1874
Z:Public Domain
%%score ( 1 2 ) ( 3 4 )
L:1/8
M:4/4
K:D
V:1 treble 
V:2 treble 
V:3 bass 
V:4 bass 
V:1
 [DF]2 | [DF]3 [DA] [DG]2 [DF]2 | [CF]2 [CE]2 D2 [=C^D]2 | [B,E]2 [^DF]2 [EG]2 [=DB]2 | %4
 [CE]6 [CA]2 | [Dd]3 [Dc] [Ec]2 [DB]2 | [EA]2 [CG]2 [DF]2 [DA]2 | [EG]4 [CE]4 | D6 |] %9
V:2
 x2 | x8 | x4 ^D2 x2 | x8 | x8 | x8 | x8 | x8 | D6 |] %9
V:3
 [D,A,]2 | [D,A,]3 [D,F,] [D,B,]2 [D,A,]2 | [A,,A,]2 [A,,G,]2 [B,,F,]2 [F,A,]2 | %3
 G,2 [F,A,]2 [E,B,]2 [G,,E,]2 | [A,,A,]6 [G,A,]2 | [F,A,]3 [F,A,] [G,^A,]2 [G,B,]2 | %6
 [C,E,]2 [A,,E,]2 [B,,D,]2 [F,,A,]2 | [G,,B,]4 (A,2 G,2) | [D,F,]6 |] %9
V:4
 x2 | x8 | x8 | G,2 x6 | x8 | x8 | x8 | x4 A,,4 | x6 |] %9

